X: 459
T: The Boys from Kerry
N:"Moderate" "collected by F.O'Neill"
N:Irish title: na buacailli.de ua ciarrai.ge
B:O'Neill's 459
Z:Transcribed by henrik.norbeck@mailbox.swipnet.se
M:C
L:1/8
K:G
G>A | B3 A B>Bce | d2 A2 B2 AG | E2 D>E G2 G2 | G6 d2 |
e2 de g2 ge | d2 B G2 Bc | d2 d2 edBG | A6 d2 |
e2 de g2 ge | d3 B G2 Bc | d2 d2 cABG | E6 G>A |
B3 A B>Bce | d2 A2 B2 AG | E2 D>E G2 G2 | G6 ||


